X: 38550
T: Stevie And Elsa's Leaving
R: reel
M: 4/4
K: Dmajor
|:d2 d>c d>f a>f|g>=f e>d =c>e g>e|d2 d>c d>f a>f|g>=f e>d =c>B (3cBA|
G>F G>B d>=f e>d|=c>B c>d ^c>e a>g|f>d e>c d>A =c>B|A>^G A>c e>A d>c:|
|:d>B G>F G>B (3d=cB|^c>A e>f g>e c>A|d>B G>F G>B (3d=cB|^c>A e>f g>A f>g|
a2 e>g f>e d>A|=f>A =c>f e>d ^c>A|d>G _B>=f e>d c>a|d2 d>c d2 d>c:|

